icon-svg/nes-console.svg

<svg xmlns="http://www.w3.org/2000/svg" viewBox="0 0 24 24"><path fill="#44739e" d="m8.052 14.928-.024-.583-1.229-.123-.202.088 1.247.109.022.603Zm-1.887-.756-1.229-.124-.202.089 1.247.108.022.603.186-.094Zm12.994-5.594-2.756-.17-.066.074 2.763.176ZM18.185 9.9l-2.943-.188-.055.062 2.94.205Zm.554-.752L15.9 8.973l-.067.074 2.847.182Zm-.42.57-2.922-.18-.055.061 2.927.187Zm.977-1.326-2.73-.168-.062.07 2.74.169Zm-.84 1.141-2.896-.178-.062.07 2.905.179Zm.56-.76-2.78-.178-.072.081 2.796.172Zm-.483.655.062-.085-2.862-.182-.072.08 2.872.177Zm.343-.465-2.813-.173-.062.07 2.822.174Zm.601 5.327 2.34-4.267L22 8.048a.33.33 0 0 0-.308-.336L7.347 6.738a.65.65 0 0 0-.38.091l-4.642 2.8c-.074.045-.316.209-.312.447l.031 2.346Zm-5.255-3.308a.7.7 0 0 0-.182.364l.029 1.452-9.536-1.033-.09-1.387v-.035a.24.24 0 0 1 .142-.262l.754-.381 9.334.734ZM2.51 9.931l4.642-2.795a.3.3 0 0 1 .171-.036l9.7.659-.318.357 2.713.167.254-.344 1.967.133-.109 1.864-2.179 4.031-2.236-.246.048-2.26a.4.4 0 0 1 .073-.216l.845-1.147-2.956-.207-.212.239-9.6-.79h-.051l-.852.435-.01-.002a.59.59 0 0 0-.317.577l.117 1.74 9.91 1.044v.251L2.4 12.1l-.027-2.028a.33.33 0 0 1 .137-.141m3.54 4.96.1.011a.04.04 0 0 0 .032-.01.04.04 0 0 0 .012-.031v-.04Zm-1.116-.903 1.234.124v-.037a.04.04 0 0 0-.035-.039L4.7 13.9a.04.04 0 0 0-.027.011.04.04 0 0 0-.012.03l.007.155.259-.113Zm1.866.174 1.236.124v-.036a.04.04 0 0 0-.038-.041l-1.463-.137a.04.04 0 0 0-.029.012.04.04 0 0 0-.013.033l.008.173.3-.129Zm7.934 1.607.341.039a.18.18 0 0 0 .142-.044.18.18 0 0 0 .065-.134l.017-.52a.2.2 0 0 0-.051-.134l-.392-.415a.16.16 0 0 0-.118-.05.16.16 0 0 0-.11.043.2.2 0 0 0-.059.136v.894a.186.186 0 0 0 .165.185m-.615.993 2.825.354.047-2.95-2.9-.308Zm1.711-1.907a.28.28 0 0 1 .087-.2.25.25 0 0 1 .355.011l.392.414a.28.28 0 0 1 .076.2l-.018.52a.27.27 0 0 1-.1.2.28.28 0 0 1-.18.067h-.032l-.341-.04a.275.275 0 0 1-.244-.273Zm-1.35-.165a.28.28 0 0 1 .086-.2.25.25 0 0 1 .355.011l.392.414a.28.28 0 0 1 .076.2l-.018.52a.27.27 0 0 1-.1.2.28.28 0 0 1-.18.067h-.032l-.341-.039a.275.275 0 0 1-.243-.274ZM2 12.562l.028.337a.7.7 0 0 0 .053.216l.907 2.115a.41.41 0 0 0 .332.249l10.71 1.283L14 13.85Zm4.238 2.4a.13.13 0 0 1-.087.035h-.014l-1.415-.156a.13.13 0 0 1-.1-.069l1.329.148-.022-.62-1.429-.124.085-.037-.009-.189a.13.13 0 0 1 .039-.1.13.13 0 0 1 .1-.035l1.428.132a.13.13 0 0 1 .117.125l.024.787a.13.13 0 0 1-.046.098Zm1.866.206a.13.13 0 0 1-.089.034H8l-1.45-.166a.13.13 0 0 1-.111-.1l1.375.152-.022-.614-1.422-.13.036-.015-.01-.208a.14.14 0 0 1 .04-.1.13.13 0 0 1 .1-.036L8 14.12a.13.13 0 0 1 .119.128l.024.813a.13.13 0 0 1-.043.102Zm8.976-.988-.046 2.941 1.164.14a.41.41 0 0 0 .416-.221l3.167-6.154a.6.6 0 0 0 .062-.256v-.484l-2.3 4.3Zm-9.218.911.148.017a.04.04 0 0 0 .033-.011.05.05 0 0 0 .014-.033v-.07Zm8.222.843.341.039a.187.187 0 0 0 .208-.178l.017-.52a.2.2 0 0 0-.051-.134l-.392-.415a.16.16 0 0 0-.118-.05.16.16 0 0 0-.11.043.2.2 0 0 0-.059.136v.894a.19.19 0 0 0 .164.185"/></svg>

<?xml version="1.0" encoding="UTF-8"?>
<svg width="24px" fill="#44739e" height="24px" viewBox="0 0 24 24" version="1.1" xmlns="http://www.w3.org/2000/svg" xmlns:xlink="http://www.w3.org/1999/xlink">
            <path d="M 8.052,14.928 8.028,14.345 6.799,14.222 6.597,14.31 7.844,14.419 7.866,15.022 Z M 6.165,14.172 4.936,14.048 4.734,14.137 5.981,14.245 6.003,14.848 6.189,14.754 Z M 19.159,8.578 16.403,8.408 16.337,8.482 19.1,8.658 Z M 18.185,9.9 15.242,9.712 15.187,9.774 18.127,9.979 Z M 18.739,9.148 15.9,8.973 15.833,9.047 18.68,9.229 Z m -0.42,0.57 -2.922,-0.18 -0.055,0.061 2.927,0.187 z m 0.977,-1.326 -2.73,-0.168 -0.062,0.07 2.74,0.169 z m -0.84,1.141 -2.896,-0.178 -0.062,0.07 2.905,0.179 z m 0.56,-0.76 -2.78,-0.178 -0.072,0.081 2.796,0.172 z m -0.483,0.655 0.062,-0.085 -2.862,-0.182 -0.072,0.08 2.872,0.177 z M 18.876,8.963 16.063,8.79 16.001,8.86 18.823,9.034 Z m 0.601,5.327 2.34,-4.267 L 22,8.048 A 0.33,0.33 0 0 0 21.692,7.712 L 7.347,6.738 a 0.649,0.649 0 0 0 -0.38,0.091 l -4.642,2.8 C 2.251,9.674 2.009,9.838 2.013,10.076 l 0.031,2.346 z m -5.255,-3.308 a 0.679,0.679 0 0 0 -0.182,0.364 l 0.029,1.452 -9.536,-1.033 -0.09,-1.387 V 10.343 A 0.243,0.243 0 0 1 4.585,10.081 L 5.339,9.7 14.673,10.434 Z M 2.51,9.931 7.152,7.136 A 0.294,0.294 0 0 1 7.323,7.1 l 9.7,0.659 -0.318,0.357 2.713,0.167 0.254,-0.344 1.967,0.133 -0.109,1.864 -2.179,4.031 -2.236,-0.246 0.048,-2.26 a 0.379,0.379 0 0 1 0.073,-0.216 L 18.081,10.098 15.125,9.891 14.913,10.13 5.313,9.34 H 5.262 L 4.41,9.775 4.4,9.773 A 0.589,0.589 0 0 0 4.083,10.35 l 0.117,1.74 9.91,1.044 v 0.251 L 2.4,12.1 2.373,10.072 A 0.325,0.325 0 0 1 2.51,9.931 Z m 3.54,4.96 0.1,0.011 a 0.038,0.038 0 0 0 0.032,-0.01 0.039,0.039 0 0 0 0.012,-0.031 v -0.04 z M 4.934,13.988 6.168,14.112 V 14.075 A 0.04,0.04 0 0 0 6.133,14.036 L 4.7,13.9 v 0 a 0.04,0.04 0 0 0 -0.027,0.011 0.039,0.039 0 0 0 -0.012,0.03 l 0.007,0.155 0.259,-0.113 z M 6.8,14.162 8.036,14.286 V 14.25 A 0.042,0.042 0 0 0 7.998,14.209 L 6.535,14.072 v 0 a 0.04,0.04 0 0 0 -0.029,0.012 0.044,0.044 0 0 0 -0.013,0.033 l 0.008,0.173 0.3,-0.129 z m 7.934,1.607 0.341,0.039 a 0.18,0.18 0 0 0 0.142,-0.044 0.184,0.184 0 0 0 0.065,-0.134 l 0.017,-0.52 a 0.186,0.186 0 0 0 -0.051,-0.134 l -0.392,-0.415 a 0.164,0.164 0 0 0 -0.118,-0.05 0.161,0.161 0 0 0 -0.11,0.043 0.185,0.185 0 0 0 -0.059,0.136 v 0.894 a 0.186,0.186 0 0 0 0.165,0.185 z m -0.615,0.993 2.825,0.354 0.047,-2.95 -2.9,-0.308 z m 1.711,-1.907 a 0.278,0.278 0 0 1 0.087,-0.2 0.252,0.252 0 0 1 0.355,0.011 l 0.392,0.414 a 0.278,0.278 0 0 1 0.076,0.2 l -0.018,0.52 a 0.274,0.274 0 0 1 -0.1,0.2 0.281,0.281 0 0 1 -0.18,0.067 H 16.41 l -0.341,-0.04 A 0.275,0.275 0 0 1 15.825,15.754 Z M 14.48,14.69 a 0.277,0.277 0 0 1 0.086,-0.2 0.252,0.252 0 0 1 0.355,0.011 l 0.392,0.414 a 0.279,0.279 0 0 1 0.076,0.2 l -0.018,0.52 a 0.274,0.274 0 0 1 -0.1,0.2 0.279,0.279 0 0 1 -0.18,0.067 H 15.059 L 14.718,15.863 A 0.275,0.275 0 0 1 14.475,15.589 Z M 2,12.562 2.028,12.899 a 0.705,0.705 0 0 0 0.053,0.216 L 2.988,15.23 A 0.412,0.412 0 0 0 3.32,15.479 L 14.03,16.762 14,13.85 Z m 4.238,2.4 A 0.125,0.125 0 0 1 6.151,14.997 H 6.137 L 4.722,14.841 a 0.127,0.127 0 0 1 -0.1,-0.069 L 5.951,14.92 5.929,14.3 4.5,14.176 4.585,14.139 4.576,13.95 a 0.128,0.128 0 0 1 0.039,-0.1 0.125,0.125 0 0 1 0.1,-0.035 v 0 l 1.428,0.132 a 0.129,0.129 0 0 1 0.117,0.125 l 0.024,0.787 a 0.127,0.127 0 0 1 -0.046,0.098 z m 1.866,0.206 A 0.134,0.134 0 0 1 8.015,15.202 H 8 L 6.55,15.036 a 0.13,0.13 0 0 1 -0.111,-0.1 L 7.814,15.088 7.792,14.474 6.37,14.344 6.406,14.329 6.396,14.121 a 0.135,0.135 0 0 1 0.04,-0.1 0.133,0.133 0 0 1 0.1,-0.036 v 0 L 8,14.12 a 0.132,0.132 0 0 1 0.119,0.128 l 0.024,0.813 A 0.134,0.134 0 0 1 8.1,15.163 Z m 8.976,-0.988 -0.046,2.941 1.164,0.14 a 0.414,0.414 0 0 0 0.416,-0.221 l 3.167,-6.154 a 0.569,0.569 0 0 0 0.062,-0.256 v -0.484 l -2.3,4.3 z m -9.218,0.911 0.148,0.017 a 0.044,0.044 0 0 0 0.033,-0.011 0.045,0.045 0 0 0 0.014,-0.033 v -0.07 z m 8.222,0.843 0.341,0.039 a 0.187,0.187 0 0 0 0.208,-0.178 l 0.017,-0.52 a 0.186,0.186 0 0 0 -0.051,-0.134 l -0.392,-0.415 a 0.164,0.164 0 0 0 -0.118,-0.05 0.161,0.161 0 0 0 -0.11,0.043 0.185,0.185 0 0 0 -0.059,0.136 v 0.894 a 0.187,0.187 0 0 0 0.164,0.185 z"/>

</svg>
